X: 57
T:The Farmer's Reel
R:Reel
M:4/4
L:1/8
K:G
d>c|BGBd BGBd|gfge dBGB|ecdB cABG|E2A2 A2dc|
BGBd BGBd|gfge dBGB|ecdB cABG|D2G2 G2:|
|:g2|dgBg dgBg|dgba gfed|ea^ca ea^ca|e2ag fed^c|
dgBg dgBg|dgba gfed|faba gfef|g2g2 g2:|
|:B>c|dBgB dgBg|ecgc egce|dBgB dgBd|AGFE D2Bc|
dBgB dgBd|ecgc egce|dBGB cAFA|G2B2 G2:|
